;FLAVOR:Marlin
;TIME:1766
;Filament used: 1.19137m
;Layer height: 0.2
;MINX:86.878
;MINY:85.055
;MINZ:0.2
;MAXX:124.968
;MAXY:123.924
;MAXZ:28.4
;Generated with Cura_SteamEngine 4.7.1
M140 S55
M105
M190 S55
M104 S195
M105
M109 S195
M82 ;absolute extrusion mode
G21 ;metric values
G90 ;absolute positioning
M82 ;set extruder to absolute mode
M107 ;start with the fan off
G28 X0 Y0 ;move X/Y to min endstops
G28 Z0 ;move Z to min endstops
G1 Z15.0 F100 ;move the platform down 15mm
G92 E0 ;zero the extruded length
G1 F200 E3 ;extrude 3mm of feed stock
G92 E0 ;zero the extruded length again
G1 F100
G0 Y20 F100
M117 Printing...
G5
G92 E0
G92 E0
G1 F2400 E-6
;LAYER_COUNT:142
;LAYER:0
M106 S255
M204 S3000
M205 X10 Y10
G1 F600 Z0.275
G0 F3000 X94.309 Y88.456 Z0.275
M204 S1800
M205 X8 Y8
;TYPE:SKIRT
G1 F600 Z0.2
G1 F2400 E0
G1 X94.832 Y87.939 E0.03424
G1 X95.492 Y87.389 E0.07425
G1 X96.078 Y86.968 E0.10785
G1 X96.564 Y86.664 E0.13454
G1 X97.184 Y86.321 E0.16753
G1 X97.928 Y85.981 E0.20562
G1 X98.59 Y85.731 E0.23857
G1 X99.398 Y85.49 E0.27783
G1 X99.981 Y85.349 E0.30576
G1 X100.582 Y85.234 E0.33426
G1 X101.34 Y85.132 E0.36987
G1 X102.077 Y85.073 E0.4043
G1 X102.85 Y85.055 E0.4403
G1 X103.389 Y85.067 E0.46541
G1 X104.014 Y85.099 E0.49455
G1 X104.529 Y85.146 E0.51863
G1 X105.11 Y85.223 E0.54592
G1 X106.044 Y85.378 E0.59
G1 X106.509 Y85.471 E0.61208
G1 X107.095 Y85.607 E0.6401
G1 X107.721 Y85.77 E0.67022
G1 X108.256 Y85.926 E0.69617
G1 X108.849 Y86.116 E0.72516
G1 X109.142 Y86.218 E0.73961
G1 X110.156 Y86.598 E0.79003
G1 X110.362 Y86.679 E0.80034
G1 X111.119 Y86.993 E0.8385
G1 X111.31 Y87.076 E0.8482
G1 X111.826 Y87.31 E0.87458
G1 X111.984 Y87.384 E0.8827
G1 X112.771 Y87.767 E0.92346
G1 X112.938 Y87.852 E0.93218
G1 X113.576 Y88.186 E0.96572
G1 X113.713 Y88.26 E0.97297
G1 X114.297 Y88.584 E1.00407
G1 X114.447 Y88.67 E1.01212
G1 X115.07 Y89.038 E1.04581
G1 X115.208 Y89.121 E1.05331
G1 X115.811 Y89.498 E1.08642
G1 X115.95 Y89.588 E1.09413
G1 X116.574 Y90.001 E1.12898
G1 X116.722 Y90.102 E1.13732
G1 X117.193 Y90.433 E1.16413
G1 X117.324 Y90.527 E1.17163
G1 X117.888 Y90.945 E1.20432
G1 X118.038 Y91.06 E1.21312
G1 X118.552 Y91.465 E1.24359
G1 X119.024 Y91.858 E1.27219
G1 X119.188 Y92 E1.28229
G1 X119.733 Y92.49 E1.31642
G1 X119.921 Y92.666 E1.32841
G1 X120.552 Y93.281 E1.36944
G1 X121.016 Y93.769 E1.4008
G1 X121.397 Y94.203 E1.42769
G1 X121.604 Y94.452 E1.44277
G1 X121.935 Y94.87 E1.46759
G1 X122.378 Y95.477 E1.50258
G1 X122.761 Y96.052 E1.53475
G1 X123.139 Y96.681 E1.56893
G1 X123.339 Y97.045 E1.58826
G1 X123.636 Y97.634 E1.61898
G1 X123.983 Y98.415 E1.65877
G1 X124.14 Y98.819 E1.67896
G1 X124.383 Y99.513 E1.7132
G1 X124.556 Y100.083 E1.74093
G1 X124.703 Y100.7 E1.77047
G1 X124.814 Y101.298 E1.79879
G1 X124.913 Y102.054 E1.83429
G1 X124.956 Y102.606 E1.86007
G1 X124.968 Y103.196 E1.88755
G1 X124.96 Y103.667 E1.90949
G1 X124.911 Y104.359 E1.94179
G1 X124.841 Y104.859 E1.9653
G1 X124.767 Y105.285 E1.98543
G1 X124.615 Y105.948 E2.01711
G1 X124.452 Y106.483 E2.04315
G1 X124.307 Y106.901 E2.06375
G1 X124.038 Y107.556 E2.09672
G1 X123.65 Y108.309 E2.13616
G1 X123.253 Y108.947 E2.17115
G1 X122.874 Y109.484 E2.20176
G1 X122.268 Y110.22 E2.24615
G1 X121.739 Y110.755 E2.28119
G1 X121.624 Y110.867 E2.28866
G1 X121.235 Y111.232 E2.3135
G1 X119.27 Y113.124 E2.44052
G1 X117.453 Y114.975 E2.5613
G1 X115.627 Y116.944 E2.68634
G1 X113.912 Y118.902 E2.80754
G1 X112.568 Y120.545 E2.90638
G1 X111.691 Y121.602 E2.97033
G1 X111.205 Y122.126 E3.00361
G1 X110.662 Y122.592 E3.03693
G1 X110.072 Y122.995 E3.0702
G1 X109.439 Y123.33 E3.10355
G1 X108.774 Y123.592 E3.13683
G1 X108.083 Y123.778 E3.17015
G1 X107.376 Y123.886 E3.20346
G1 X106.669 Y123.92 E3.23641
G1 X106.043 Y123.924 E3.26556
G1 X105.909 Y123.923 E3.2718
G1 X104.471 Y123.896 E3.33878
G1 X103.762 Y123.861 E3.37183
G1 X102.931 Y123.781 E3.4107
G1 X102.398 Y123.71 E3.43574
G1 X101.833 Y123.619 E3.46239
G1 X101.32 Y123.522 E3.4867
G1 X100.753 Y123.396 E3.51375
G1 X99.907 Y123.174 E3.55447
G1 X99.383 Y123.017 E3.57994
G1 X98.839 Y122.835 E3.60665
G1 X98.365 Y122.662 E3.63015
G1 X97.872 Y122.467 E3.65484
G1 X97.313 Y122.228 E3.68315
G1 X96.823 Y122 E3.70831
G1 X96.442 Y121.81 E3.72814
G1 X95.995 Y121.575 E3.75165
G1 X95.488 Y121.289 E3.77876
G1 X94.986 Y120.985 E3.80608
G1 X94.628 Y120.755 E3.8259
G1 X94.198 Y120.465 E3.85005
G1 X93.753 Y120.147 E3.87552
G1 X93.277 Y119.783 E3.90342
G1 X92.963 Y119.529 E3.92222
G1 X92.579 Y119.206 E3.94559
G1 X92.148 Y118.821 E3.9725
G1 X91.763 Y118.455 E3.99723
G1 X91.405 Y118.095 E4.02088
G1 X91.055 Y117.728 E4.04449
G1 X90.685 Y117.319 E4.07017
G1 X90.345 Y116.917 E4.09469
G1 X90.046 Y116.543 E4.11698
G1 X89.719 Y116.113 E4.14214
G1 X89.386 Y115.651 E4.16866
G1 X89.021 Y115.105 E4.19924
G1 X88.903 Y114.915 E4.20965
G1 X88.154 Y113.668 E4.27739
G1 X88.061 Y113.509 E4.28596
G1 X87.699 Y112.865 E4.32037
G1 X87.384 Y112.223 E4.35366
G1 X87.142 Y111.55 E4.38697
G1 X86.978 Y110.854 E4.42026
G1 X86.891 Y110.144 E4.45357
G1 X86.878 Y109.726 E4.47304
G1 X86.918 Y109.012 E4.50634
G1 X87.037 Y108.307 E4.53963
G1 X87.305 Y107.427 E4.58247
G1 X87.734 Y106.315 E4.63797
G1 X87.804 Y106.141 E4.6467
G1 X88.723 Y103.661 E4.76985
G1 X89.575 Y101.146 E4.8935
G1 X90.346 Y98.637 E5.01572
G1 X91.057 Y96.068 E5.13984
G1 X91.381 Y94.755 E5.20281
G1 X91.434 Y94.584 E5.21115
G1 X91.827 Y92.984 E5.28787
G1 X91.942 Y92.563 E5.30819
G1 X92.173 Y91.887 E5.34145
G1 X92.357 Y91.434 E5.36422
G1 X92.604 Y90.899 E5.39166
G1 X92.763 Y90.592 E5.40776
G1 X93.086 Y90.037 E5.43766
G1 X93.319 Y89.68 E5.45751
G1 X93.754 Y89.091 E5.49161
G1 X94.309 Y88.456 E5.53088
M204 S3000
M205 X10 Y10
G0 F3000 X94.724 Y88.831
M204 S1800
M205 X8 Y8
G1 F2400 X95.202 Y88.36 E5.56212
G1 X95.843 Y87.825 E5.601
G1 X96.378 Y87.441 E5.63167
G1 X96.848 Y87.146 E5.6575
G1 X97.43 Y86.824 E5.68848
G1 X98.15 Y86.495 E5.72534
G1 X98.776 Y86.259 E5.75649
G1 X99.529 Y86.035 E5.79307
G1 X100.112 Y85.894 E5.821
G1 X100.661 Y85.788 E5.84704
G1 X101.395 Y85.689 E5.88152
G1 X102.096 Y85.632 E5.91427
G1 X102.84 Y85.615 E5.94893
G1 X103.362 Y85.627 E5.97324
G1 X103.974 Y85.658 E6.00177
G1 X104.614 Y85.72 E6.03171
G1 X105.018 Y85.776 E6.0507
G1 X105.952 Y85.931 E6.09479
G1 X106.382 Y86.016 E6.1152
G1 X106.968 Y86.152 E6.14321
G1 X107.578 Y86.311 E6.17257
G1 X108.085 Y86.459 E6.19716
G1 X108.678 Y86.649 E6.22615
G1 X108.945 Y86.742 E6.23932
G1 X109.959 Y87.122 E6.28974
G1 X110.148 Y87.197 E6.29921
G1 X110.905 Y87.511 E6.33737
G1 X111.079 Y87.586 E6.34619
G1 X111.595 Y87.82 E6.37258
G1 X111.739 Y87.888 E6.37999
G1 X112.526 Y88.271 E6.42075
G1 X112.679 Y88.348 E6.42872
G1 X113.317 Y88.682 E6.46226
G1 X113.441 Y88.749 E6.46882
G1 X114.025 Y89.073 E6.49992
G1 X114.162 Y89.152 E6.50728
G1 X114.785 Y89.52 E6.54097
G1 X114.911 Y89.596 E6.54782
G1 X115.514 Y89.973 E6.58094
G1 X115.641 Y90.055 E6.58798
G1 X116.265 Y90.468 E6.62282
G1 X116.4 Y90.56 E6.63043
G1 X116.871 Y90.891 E6.65723
G1 X116.99 Y90.977 E6.66407
G1 X117.554 Y91.395 E6.69676
G1 X117.691 Y91.5 E6.7048
G1 X118.205 Y91.905 E6.73527
G1 X118.664 Y92.286 E6.76304
G1 X118.814 Y92.416 E6.77229
G1 X119.359 Y92.906 E6.80641
G1 X119.53 Y93.067 E6.81735
G1 X120.161 Y93.682 E6.85838
G1 X120.595 Y94.138 E6.88769
G1 X120.976 Y94.572 E6.91458
G1 X121.165 Y94.8 E6.92837
G1 X121.496 Y95.218 E6.9532
G1 X121.92 Y95.8 E6.98673
G1 X122.286 Y96.348 E7.01742
G1 X122.657 Y96.965 E7.05094
G1 X122.839 Y97.298 E7.06861
G1 X123.136 Y97.887 E7.09933
G1 X123.468 Y98.635 E7.13743
G1 X123.612 Y99.004 E7.15588
G1 X123.855 Y99.698 E7.19012
G1 X124.015 Y100.231 E7.21603
G1 X124.157 Y100.825 E7.24447
G1 X124.262 Y101.39 E7.27123
G1 X124.357 Y102.122 E7.3056
G1 X124.396 Y102.626 E7.32914
G1 X124.408 Y103.186 E7.35522
G1 X124.4 Y103.657 E7.37715
G1 X124.355 Y104.289 E7.40666
G1 X124.215 Y105.189 E7.44907
G1 X124.076 Y105.794 E7.47797
G1 X123.922 Y106.3 E7.5026
G1 X123.777 Y106.718 E7.5232
G1 X123.533 Y107.315 E7.55323
G1 X123.157 Y108.042 E7.59135
G1 X122.795 Y108.624 E7.62326
G1 X122.416 Y109.161 E7.65387
G1 X121.863 Y109.833 E7.69439
G1 X121.346 Y110.357 E7.72867
G1 X121.241 Y110.458 E7.73545
G1 X120.821 Y110.852 E7.76227
G1 X118.913 Y112.689 E7.8856
G1 X117.022 Y114.617 E8.01135
G1 X115.225 Y116.554 E8.13438
G1 X113.468 Y118.559 E8.25851
G1 X112.137 Y120.187 E8.35643
G1 X111.26 Y121.244 E8.42038
G1 X110.794 Y121.743 E8.45218
G1 X110.273 Y122.185 E8.48399
G1 X109.703 Y122.563 E8.51584
G1 X109.094 Y122.871 E8.54762
G1 X108.452 Y123.106 E8.57945
G1 X107.788 Y123.265 E8.61124
G1 X106.933 Y123.353 E8.65126
G1 X106.042 Y123.364 E8.69276
G1 X105.919 Y123.363 E8.69848
G1 X104.481 Y123.336 E8.76545
G1 X103.807 Y123.303 E8.79688
G1 X102.991 Y123.224 E8.83505
G1 X102.487 Y123.157 E8.85873
G1 X101.922 Y123.066 E8.88537
G1 X101.046 Y122.889 E8.92699
G1 X100.46 Y122.745 E8.95509
G1 X99.886 Y122.585 E8.98283
G1 X99.391 Y122.431 E9.00697
G1 X98.894 Y122.261 E9.03143
G1 X98.571 Y122.142 E9.04746
G1 X98.078 Y121.947 E9.07215
G1 X97.548 Y121.719 E9.09901
G1 X97.07 Y121.497 E9.12355
G1 X96.702 Y121.314 E9.14269
G1 X96.255 Y121.079 E9.16621
G1 X95.776 Y120.809 E9.19181
G1 X95.287 Y120.513 E9.21843
G1 X94.942 Y120.291 E9.23753
G1 X94.512 Y120.001 E9.26168
G1 X94.091 Y119.7 E9.28578
G1 X93.629 Y119.348 E9.31282
G1 X93.324 Y119.1 E9.33113
G1 X92.94 Y118.777 E9.35449
G1 X92.532 Y118.413 E9.37995
G1 X92.158 Y118.058 E9.40396
G1 X91.81 Y117.708 E9.42695
G1 X91.354 Y117.228 E9.45778
G1 X90.873 Y116.676 E9.49187
G1 X90.491 Y116.204 E9.52014
G1 X90.164 Y115.774 E9.5453
G1 X89.849 Y115.337 E9.57038
G1 X89.491 Y114.8 E9.60043
G1 X89.383 Y114.627 E9.60993
G1 X88.634 Y113.38 E9.67766
G1 X88.549 Y113.235 E9.68549
G1 X88.187 Y112.591 E9.71989
G1 X87.888 Y111.976 E9.75173
G1 X87.662 Y111.332 E9.78351
G1 X87.513 Y110.665 E9.81534
G1 X87.438 Y109.726 E9.8592
G1 X87.478 Y109.044 E9.89101
G1 X87.597 Y108.371 E9.92283
G1 X87.828 Y107.628 E9.95907
G1 X88.254 Y106.524 E10.01417
G1 X88.317 Y106.368 E10.022
G1 X89.247 Y103.858 E10.14664
G1 X90.112 Y101.303 E10.27225
G1 X90.889 Y98.775 E10.3954
G1 X91.605 Y96.188 E10.52039
G1 X91.925 Y94.889 E10.58268
G1 X91.975 Y94.728 E10.59053
G1 X92.371 Y93.117 E10.66778
G1 X92.481 Y92.715 E10.68719
G1 X92.692 Y92.097 E10.71759
G1 X92.876 Y91.644 E10.74036
G1 X93.101 Y91.156 E10.76538
G1 X93.26 Y90.849 E10.78148
G1 X93.555 Y90.343 E10.80875
G1 X93.788 Y89.986 E10.82861
G1 X94.185 Y89.448 E10.85974
G1 X94.724 Y88.831 E10.89789
M204 S3000
M205 X10 Y10
G0 F3000 X95.14 Y89.207
M204 S1800
M205 X8 Y8
G1 F2400 X95.572 Y88.78 E10.92617
G1 X96.195 Y88.26 E10.96396
G1 X96.678 Y87.914 E10.99162
G1 X97.132 Y87.629 E11.01658
G1 X97.676 Y87.327 E11.04556
G1 X98.373 Y87.009 E11.08123
G1 X98.961 Y86.788 E11.11048
G1 X99.661 Y86.579 E11.1445
G1 X100.244 Y86.438 E11.17243
G1 X100.74 Y86.343 E11.19594
G1 X101.45 Y86.247 E11.2293
G1 X102.115 Y86.192 E11.26037
G1 X102.83 Y86.175 E11.29368
G1 X103.335 Y86.186 E11.3172
G1 X103.934 Y86.216 E11.34513
G1 X104.543 Y86.275 E11.37362
G1 X104.926 Y86.328 E11.39162
G1 X105.86 Y86.483 E11.43571
G1 X106.256 Y86.562 E11.45451
G1 X106.842 Y86.698 E11.48252
G1 X107.434 Y86.852 E11.511
G1 X107.914 Y86.993 E11.5343
G1 X108.507 Y87.183 E11.56329
G1 X108.749 Y87.267 E11.57522
G1 X109.763 Y87.647 E11.62564
G1 X109.933 Y87.714 E11.63415
G1 X110.69 Y88.028 E11.67231
G1 X110.848 Y88.096 E11.68032
G1 X111.364 Y88.33 E11.70671
G1 X111.493 Y88.391 E11.71335
G1 X112.28 Y88.774 E11.75411
G1 X112.419 Y88.844 E11.76135
G1 X113.057 Y89.178 E11.79489
G1 X113.17 Y89.239 E11.80086
G1 X113.754 Y89.563 E11.83196
G1 X113.877 Y89.634 E11.83858
G1 X114.5 Y90.002 E11.87227
G1 X114.614 Y90.071 E11.87847
G1 X115.217 Y90.448 E11.91159
G1 X115.332 Y90.522 E11.91796
G1 X115.956 Y90.935 E11.9528
G1 X116.078 Y91.018 E11.95967
G1 X116.549 Y91.349 E11.98648
G1 X116.657 Y91.427 E11.99268
G1 X117.221 Y91.845 E12.02537
G1 X117.345 Y91.94 E12.03264
G1 X117.859 Y92.345 E12.06311
G1 X118.304 Y92.715 E12.09006
G1 X118.439 Y92.833 E12.09841
G1 X118.984 Y93.323 E12.13254
G1 X119.139 Y93.468 E12.14242
G1 X119.77 Y94.083 E12.18345
G1 X120.174 Y94.508 E12.21075
G1 X120.555 Y94.942 E12.23764
G1 X120.726 Y95.147 E12.25007
G1 X121.057 Y95.565 E12.2749
G1 X121.463 Y96.124 E12.30707
G1 X121.811 Y96.645 E12.33625
G1 X122.174 Y97.249 E12.36906
G1 X122.339 Y97.55 E12.38504
G1 X122.636 Y98.139 E12.41576
G1 X122.954 Y98.856 E12.45228
G1 X123.083 Y99.189 E12.46891
G1 X123.326 Y99.883 E12.50315
G1 X123.475 Y100.379 E12.52726
G1 X123.611 Y100.95 E12.5546
G1 X123.709 Y101.482 E12.57979
G1 X123.801 Y102.19 E12.61303
G1 X123.846 Y102.901 E12.6462
G1 X123.84 Y103.648 E12.68099
G1 X123.799 Y104.219 E12.70764
G1 X123.663 Y105.094 E12.74888
G1 X123.538 Y105.641 E12.775
G1 X123.248 Y106.534 E12.81872
G1 X123.027 Y107.074 E12.84589
G1 X122.665 Y107.775 E12.88263
G1 X122.338 Y108.302 E12.91151
G1 X121.959 Y108.839 E12.94212
G1 X121.459 Y109.445 E12.9787
G1 X120.953 Y109.958 E13.01225
G1 X120.857 Y110.05 E13.01844
G1 X120.487 Y110.397 E13.04206
G1 X118.503 Y112.307 E13.1703
G1 X116.625 Y114.221 E13.29516
G1 X114.806 Y116.182 E13.41971
G1 X113.051 Y118.186 E13.54375
G1 X111.706 Y119.829 E13.64262
G1 X110.829 Y120.886 E13.70657
G1 X110.385 Y121.36 E13.73681
G1 X109.885 Y121.775 E13.76707
G1 X109.338 Y122.126 E13.79733
G1 X108.753 Y122.407 E13.82755
G1 X108.137 Y122.614 E13.85781
G1 X107.5 Y122.744 E13.88808
G1 X106.917 Y122.793 E13.91533
G1 X106.041 Y122.804 E13.95612
G1 X105.93 Y122.803 E13.96129
G1 X104.492 Y122.776 E14.02826
G1 X103.852 Y122.745 E14.0581
G1 X103.051 Y122.668 E14.09557
G1 X102.576 Y122.604 E14.11788
G1 X102.011 Y122.513 E14.14453
G1 X101.165 Y122.342 E14.18472
G1 X100.608 Y122.205 E14.21143
G1 X100.05 Y122.05 E14.2384
G1 X99.57 Y121.9 E14.26181
G1 X99.085 Y121.735 E14.28567
G1 X98.777 Y121.621 E14.30096
G1 X98.284 Y121.426 E14.32565
G1 X97.782 Y121.211 E14.35108
G1 X97.317 Y120.994 E14.37497
G1 X96.963 Y120.819 E14.39336
G1 X96.516 Y120.584 E14.41687
G1 X96.063 Y120.328 E14.4411
G1 X95.588 Y120.041 E14.46695
G1 X95.255 Y119.827 E14.48538
G1 X94.825 Y119.537 E14.50953
G1 X94.114 Y119.016 E14.55057
G1 X93.684 Y118.672 E14.57621
G1 X93.3 Y118.349 E14.59958
G1 X92.916 Y118.005 E14.62358
G1 X92.553 Y117.661 E14.64687
G1 X92.215 Y117.322 E14.66916
G1 X91.865 Y116.955 E14.69278
G1 X91.299 Y116.313 E14.73263
G1 X90.937 Y115.865 E14.75945
G1 X90.61 Y115.435 E14.7846
G1 X90.313 Y115.023 E14.80825
G1 X89.961 Y114.495 E14.8378
G1 X89.863 Y114.339 E14.84638
G1 X89.114 Y113.092 E14.91412
G1 X89.037 Y112.96 E14.92123
G1 X88.675 Y112.316 E14.95563
G1 X88.392 Y111.731 E14.98589
G1 X88.184 Y111.116 E15.01612
G1 X88.052 Y110.48 E15.04637
G1 X87.998 Y109.726 E15.08157
G1 X88.038 Y109.078 E15.1118
G1 X88.157 Y108.439 E15.14206
G1 X88.351 Y107.829 E15.17187
G1 X88.773 Y106.732 E15.2266
G1 X88.851 Y106.538 E15.23634
G1 X89.783 Y104.024 E15.36118
G1 X90.633 Y101.512 E15.48467
G1 X91.423 Y98.944 E15.60978
G1 X92.149 Y96.322 E15.73646
G1 X92.469 Y95.023 E15.79876
G1 X92.517 Y94.87 E15.80622
G1 X92.915 Y93.251 E15.88385
G1 X93.02 Y92.866 E15.90244
G1 X93.211 Y92.308 E15.9299
G1 X93.599 Y91.414 E15.97528
G1 X93.758 Y91.107 E15.99138
G1 X94.024 Y90.649 E16.01604
G1 X94.257 Y90.292 E16.03589
G1 X94.616 Y89.806 E16.06403
G1 X95.14 Y89.207 E16.10108
M204 S3000
M205 X10 Y10
G1 F2400 E10.10108
;MESH:iot_plant_watering_sensor_esp32_enclosure_top.stl
G0 F3000 X97.627 Y98.16
G0 X98.261 Y99.947
G0 X99.547 Y100.497
G0 X100.209 Y101.417
M204 S1800
M205 X8 Y8
;TYPE:WALL-INNER
G1 F2400 E16.10108
G1 F1200 X110.702 Y107.474 E16.66524
G1 X110.717 Y107.483 E16.66606
G1 X110.667 Y107.536 E16.66773
G1 X110.267 Y108.243 E16.70555
G1 X110.121 Y108.703 E16.72803
G1 X109.92 Y109.411 E16.7623
G1 X109.701 Y109.979 E16.79064
G1 X109.434 Y110.516 E16.81857
G1 X109.107 Y111.04 E16.84733
G1 X108.72 Y111.548 E16.87706
G1 X108.312 Y111.99 E16.90507
G1 X107.846 Y112.408 E16.93422
G1 X107.36 Y112.766 E16.96233
G1 X106.809 Y113.098 E16.99228
G1 X105.547 Y113.707 E17.05753
G1 X105.371 Y114.675 E17.10335
G1 X105.371 Y115.921 E17.16137
G1 X105.371 Y116.123 E17.17077
G1 X105.201 Y116.123 E17.17869
G1 X104.999 Y116.116 E17.18575
G1 X104.342 Y116.092 E17.21636
G1 X103.924 Y116.052 E17.23591
